X: 1136
T: İbtidâdan Yol Sorarsan
C: ?
O: Turkey
F: http://compmusic.upf.edu/node/140
N: huseyni--nefes--devrihindi--iptidadan_yol--
N: makam= huseyni
N: form= nefes
N: usul= devrihindi = 7/4
M: 7/4
L: 1/16
K: C _2/4B ^3/4f  
Q: 1/4=108
%%MIDI tuningsystem comma53
A2 e2 e2 e3d e3/2d/ c2  | d4 e2 =fe fg ef ed  | \
w:  İb *  ti dâ *  dan   |  yol  so rar  | 
d4 z2 e=f ed cB A2  | 
w:  san  so *  *  *  fum    | 
A4 _1/4B2 c2 Bc d4  | g2 g2 a2 {a}g2 =f2 e2 d2  | \
w:  Yol  Mu ham *  *  med   |  A li *  *  nin  | 
c6 B4 B3/2A/ G2  | A2 e2 e2 e3d e3/2d/ c2  | 
w:  dir    |  Yet *  miş  i *  ki   | 
d4 e2 =fe fg ef ed  | d4 z2 e=f ed cB A2  | \
w:  dil  so rar  |  san  so *  *  *  fum    | 
A4 _1/4B2 c2 Bc d4  | 
w:  Dil  Mu ham *  *  med   | 
g2 g2 a2 {a}g2 =f2 e2 d2  | c6 B4 B3/2A/ G2  | \
w:  A li *  *  nin  |  dir   | 
d8-d2 z4  | A4 _1/4B2 c2 Bc d4  | 
w:  hû    |  Dil  Mu ham *  *  med   | 
g2 g2 a2 {a}g2 =f2 e2 d2  | c6 B4 B3/2A/ G2  | \
w:  A li *  *  nin  |  dir   | 
A8-A2 z4  | A2 e2 e2 e3d e3/2d/ c2  | 
w:  hû    |  İb *  ti dâ *  dan   | 
d4 e2 =fe fg ef ed  | d4 z2 e=f ed cB A2  | \
w:  yol  so rar  |  san  so *  *  *  fum    | 
A4 _1/4B2 c2 Bc d4  | 
w:  Yol  Mu ham *  *  med   | 
g2 g2 a2 {a}g2 =f2 e2 d2  | c6 B4 B3/2A/ G2  | \
w:  A li *  *  nin  |  dir    | 
A2 e2 e2 e3d e3/2d/ c2  | d4 e2 =fe fg ef ed  | 
w:  Yet *  miş  i *  ki   |  dil  so rar  | 
d4 z2 e=f ed cB A2  | A4 _1/4B2 c2 Bc d4  | \
w:  san  so *  *  *  fum    |  Dil  Mu ham *  *  med   | 
g2 g2 a2 {a}g2 =f2 e2 d2  | 
w:  A li *  *  nin  | 
c6 B4 B3/2A/ G2  | d8-d2 z4  | A4 _1/4B2 c2 Bc d4  | \
w:  dir   |  hû    |  Dil  Mu ham *  *  med   | 
g2 g2 a2 {a}g2 =f2 e2 d2  | 
w:  A li *  *  nin  | 
c6 B4 B3/2A/ G2  | A8-A2 z4  | |


